webapp/src/assets/icons/cloudproviders/aws/architecture_services/database_migration_service.svg

<?xml version="1.0" encoding="UTF-8"?>
<svg width="24px" height="24px" viewBox="0 0 24 24" version="1.1" xmlns="http://www.w3.org/2000/svg" xmlns:xlink="http://www.w3.org/1999/xlink">
    <title>Icon-Architecture/16/Arch_AWS-Database-Migration-Service_16</title>
    <g id="Icon-Architecture/16/Arch_AWS-Database-Migration-Service_16" stroke="none" stroke-width="1" fill="none" fill-rule="evenodd">
        <path d="M13.000369,20 L13.9844999,20 L13.9844999,17.9354839 L13.000369,17.9354839 L13.000369,20 Z M10.1601673,20 L11.1442982,20 L11.1442982,17.9354839 L10.1601673,17.9354839 L10.1601673,20 Z M14.969615,18.9677419 L15.9537458,18.9677419 L15.9537458,16.9032258 L14.969615,16.9032258 L14.969615,18.9677419 Z M8.10530201,18.9677419 L9.08943289,18.9677419 L9.08943289,16.9032258 L8.10530201,16.9032258 L8.10530201,18.9677419 Z M12.0457621,9.69083871 C9.92594415,9.69083871 8.98413089,9.10141935 8.98413089,8.87741935 L8.98413089,7.20412903 C9.59724443,7.49316129 10.5597244,7.68825806 12.0457621,7.68825806 C13.3280846,7.68825806 14.3348505,7.50348387 15.0158691,7.17109677 L15.0158691,8.87741935 C15.0158691,9.10864516 14.1321196,9.69083871 12.0457621,9.69083871 L12.0457621,9.69083871 Z M12.0457621,12.7597419 C10.1719769,12.7597419 8.98413089,11.9463226 8.98413089,11.6025806 L8.98413089,10.1646452 C9.77438799,10.555871 10.9258211,10.7230968 12.0457621,10.7230968 C13.3182433,10.7230968 14.330914,10.5269677 15.0158691,10.1811613 L15.0158691,11.6025806 C15.0158691,11.9380645 13.9746586,12.7597419 12.0457621,12.7597419 L12.0457621,12.7597419 Z M12.0457621,15.3713548 C10.1719769,15.3713548 8.98413089,14.5331613 8.98413089,14.1790968 L8.98413089,13.0178065 C9.72714971,13.4874839 10.8165826,13.792 12.0457621,13.792 C13.2345922,13.792 14.2905646,13.4936774 15.0158691,13.0322581 L15.0158691,14.1790968 C15.0158691,14.5434839 13.8939599,15.3713548 12.0457621,15.3713548 L12.0457621,15.3713548 Z M12.0457621,5.03225806 C14.1321196,5.03225806 15.0158691,5.63819355 15.0158691,5.87870968 C15.0158691,6.10787097 14.1616435,6.656 12.0457621,6.656 C9.81572149,6.656 8.98413089,6.17909677 8.98413089,5.87870968 C8.98413089,5.68154839 9.93873785,5.03225806 12.0457621,5.03225806 L12.0457621,5.03225806 Z M12.0457621,4 C10.0312462,4 8,4.58116129 8,5.87870968 L8,14.1790968 C8,15.3847742 9.85311846,16.4036129 12.0457621,16.4036129 C14.225612,16.4036129 16,15.4054194 16,14.1790968 L16,5.87870968 C16,4.73703226 14.4480256,4 12.0457621,4 L12.0457621,4 Z" id="AWS-Database-Migration-Service_Icon_16_Squid" fill="#C925D1"></path>
    </g>
</svg>

<svg width="24" height="24" xmlns="http://www.w3.org/2000/svg"><path d="M13 20h.984v-2.065H13V20Zm-2.84 0h.984v-2.065h-.984V20Zm4.81-1.032h.984v-2.065h-.984v2.065Zm-6.865 0h.984v-2.065h-.984v2.065Zm3.94-9.277c-2.12 0-3.06-.59-3.06-.814V7.204c.612.29 1.575.484 3.06.484 1.283 0 2.29-.185 2.97-.517v1.706c0 .232-.883.814-2.97.814Zm0 3.069c-1.873 0-3.06-.814-3.06-1.157v-1.438c.79.39 1.94.558 3.06.558 1.273 0 2.286-.196 2.97-.542v1.422c0 .335-1.04 1.157-2.97 1.157Zm0 2.611c-1.873 0-3.06-.838-3.06-1.192v-1.161c.742.47 1.832.774 3.06.774 1.19 0 2.246-.298 2.97-.76v1.147c0 .364-1.121 1.192-2.97 1.192Zm0-10.339c2.087 0 2.97.606 2.97.847 0 .229-.853.777-2.97.777-2.23 0-3.06-.477-3.06-.777 0-.197.954-.847 3.06-.847Zm0-1.032C10.032 4 8 4.581 8 5.879v8.3c0 1.206 1.853 2.225 4.046 2.225 2.18 0 3.954-.999 3.954-2.225v-8.3C16 4.737 14.448 4 12.046 4Z" fill="#C925D1" fill-rule="evenodd"/></svg>
